**kern	**silbe	**kern	**silbe	**harmony	**phrase	**leadinstrument	**rhyme	**timestamp	**harte
*ICvox	*	*ICvox	*	*M4/4	*	*	*	*	*M4/4
*VRlead*VRharmonize	*	*VRlead*VRharmonize	*	*	*	*	*	*	*
*Hstimme	*	*Nstimme	*	*	*	*	*	*	*
*B-:	*	*B-:	*	*B-:	*	*	*	*	*B-:
*M4/4	*	*M4/4	*	*	*	*	*	*	*
*clefG2	*	*clefG2	*	*	*	*	*	*	*
r;	.	r;	.	1r;	.	r	.	0	N.C.
=1	=1	=1	=1	=1	=1	=1	=1	=1	=1
*>Letter>A	*>Letter>A	*>Letter>A	*>Letter>A	*>Letter>A	*>Letter>A	*>Letter>A	*>Letter>A	*>Letter>A	*>Letter>A
*>Label>Intro	*>Label>Intro	*>Label>Intro	*>Label>Intro	*>Label>Intro	*>Label>Intro	*>Label>Intro	*>Label>Intro	*>Label>Intro	*>Label>Intro
1r	.	1r	.	1B-M	newline	guitar	.	0.325	B-:maj
=2	=2	=2	=2	=2	=2	=2	=2	=2	=2
1r	.	1r	.	1B-M	.	guitar	.	3.546	B-:maj
=3	=3	=3	=3	=3	=3	=3	=3	=3	=3
*>Letter>B	*>Letter>B	*>Letter>B	*>Letter>B	*>Letter>B	*>Letter>B	*>Letter>B	*>Letter>B	*>Letter>B	*>Letter>B
*>Label>Verse	*>Label>Verse	*>Label>Verse	*>Label>Verse	*>Label>Verse	*>Label>Verse	*>Label>Verse	*>Label>Verse	*>Label>Verse	*>Label>Verse
8d	Some-	1r	.	1B-M	newline	voice	.	6.768	B-:maj
[8d	-times	.	.	.	.	.	.	.	.
16d]	_	.	.	.	.	.	.	.	.
16d	when	.	.	.	.	.	.	.	.
8d	I'm	.	.	.	.	.	.	.	.
8.f	down	.	.	.	.	.	.	.	.
16f	and	.	.	.	.	.	.	.	.
8d	all	.	.	.	.	.	.	.	.
16d	a-	.	.	.	.	.	.	.	.
[16d	-lone	.	.	.	.	.	A	.	.
=4	=4	=4	=4	=4	=4	=4	=4	=4	=4
2d]	_	1r	.	1DMm	.	voice	.	9.853	D:7
8.r	.	.	.	.	.	.	.	.	.
16d	ooh	.	.	.	.	.	.	.	.
16c	_	.	.	.	.	.	.	.	.
[8.B-	_	.	.	.	.	.	.	.	.
=5	=5	=5	=5	=5	=5	=5	=5	=5	=5
8B-]	_	1r	.	1Gm	.	voice	.	12.938	G:min
8B-	Just	.	.	.	.	.	.	.	.
8B-	like	.	.	.	.	.	.	.	.
16c	a	.	.	.	.	.	.	.	.
[16d	child	.	.	.	.	.	.	.	.
8.d]	_	.	.	.	.	.	.	.	.
16d	wit-	.	.	.	.	.	.	.	.
8B-	-hout	.	.	.	.	.	.	.	.
16B-	a	.	.	.	.	.	.	.	.
[16A-	home	.	.	.	.	.	A	.	.
=6	=6	=6	=6	=6	=6	=6	=6	=6	=6
4A-]	_	1r	.	1B-Mm	.	voice	.	16.023	B-:7
4r	.	.	.	.	.	.	.	.	.
4r	.	.	.	.	.	.	.	.	.
8.r	.	.	.	.	.	.	.	.	.
16F	The	.	.	.	.	.	.	.	.
=7	=7	=7	=7	=7	=7	=7	=7	=7	=7
8G	love	1r	.	1E-M	newline	voice	.	19.108	E-:maj
16G	you	.	.	.	.	.	.	.	.
[16G	give	.	.	.	.	.	.	.	.
16G]	_	.	.	.	.	.	.	.	.
8A	me	.	.	.	.	.	.	.	.
[16B-	keeps	.	.	.	.	.	.	.	.
16B-]	_	.	.	.	.	.	.	.	.
[8.B-	me	.	.	.	.	.	.	.	.
16B-]	_	.	.	.	.	.	.	.	.
16B-	han-	.	.	.	.	.	.	.	.
16G	-gin'	.	.	.	.	.	.	.	.
[16F	on	.	.	.	.	.	.	.	.
=8	=8	=8	=8	=8	=8	=8	=8	=8	=8
4F]	_	1r	.	2B-M	.	voice	.	22.177	B-:maj
16r	.	.	.	.	.	.	.	.	.
8.F#	Awww	.	.	.	.	.	.	.	.
16G	ho-	.	.	2Gm	.	voice	.	23.711	G:min
[8.B-	-ney	.	.	.	.	.	.	.	.
4B-]	_	.	.	.	.	.	.	.	.
=9	=9	=9	=9	=9	=9	=9	=9	=9	=9
4r	.	1r	.	1CMm	.	voice	.	25.245	C:7
16B-	all	.	.	.	.	.	.	.	.
8.B-	I	.	.	.	.	.	.	.	.
16B-	e-	.	.	.	.	.	.	.	.
8B-	-ver	.	.	.	.	.	.	.	.
[16d	need	.	.	.	.	.	.	.	.
8d]	_	.	.	.	.	.	.	.	.
16B-	is	.	.	.	.	.	.	.	.
16d	you	.	.	.	.	.	.	.	.
=10	=10	=10	=10	=10	=10	=10	=10	=10	=10
4c	_	1r	.	2FMm	.	voice	.	28.313	F:7
4r	.	.	.	.	.	.	.	.	.
2r	.	.	.	4FM	.	voice	.	29.847	F:sus4(b7)
.	.	.	.	4FMm	.	voice	.	30.614	F:7
=11	=11	=11	=11	=11	=11	=11	=11	=11	=11
1r	.	4r	.	1B-M	newline	voice	.	31.381	B-:maj
.	.	16d	You're	.	.	.	.	.	.
.	.	8d	my	.	.	.	.	.	.
.	.	8f	first	.	.	.	.	.	.
.	.	8f	love,	.	.	.	.	.	.
.	.	8f	you're	.	.	.	.	.	.
.	.	8f	my	.	.	.	.	.	.
.	.	[16d	last	.	.	.	B	.	.
=12	=12	=12	=12	=12	=12	=12	=12	=12	=12
1r	.	8d]	_	1DMm	.	voice	.	34.438	D:7
.	.	4c	_	.	.	.	.	.	.
.	.	8r	.	.	.	.	.	.	.
.	.	2r	.	.	.	.	.	.	.
=13	=13	=13	=13	=13	=13	=13	=13	=13	=13
1r	.	8r	.	1Gm	.	voice	.	37.495	G:min
.	.	[8B-	you're	.	.	.	.	.	.
.	.	16B-_	_	.	.	.	.	.	.
.	.	8B-]	my	.	.	.	.	.	.
.	.	[16d	fu-	.	.	.	.	.	.
.	.	16d]	_	.	.	.	.	.	.
.	.	8d	-ture	.	.	.	.	.	.
.	.	[16d	you're	.	.	.	.	.	.
.	.	16d]	_	.	.	.	.	.	.
.	.	8.d	my	.	.	.	.	.	.
=14	=14	=14	=14	=14	=14	=14	=14	=14	=14
1r	.	8A-	past	1B-Mm	.	voice	B	40.551	B-:7
.	.	4F	_	.	.	.	.	.	.
.	.	8r	.	.	.	.	.	.	.
.	.	2r	.	.	.	.	.	.	.
=15	=15	=15	=15	=15	=15	=15	=15	=15	=15
1r	.	8r	.	1E-M	newline	voice	.	43.608	E-:maj
.	.	8G	And	.	.	.	.	.	.
.	.	16G	lo-	.	.	.	.	.	.
.	.	8.A	-ving	.	.	.	.	.	.
.	.	8.B-	you	.	.	.	.	.	.
.	.	16A	is	.	.	.	.	.	.
.	.	16B-	all	.	.	.	.	.	.
.	.	8.G	I	.	.	.	.	.	.
=16	=16	=16	=16	=16	=16	=16	=16	=16	=16
1r	.	8F	ask	2B-M	.	voice	B	46.638	B-:maj
.	.	8r	.	.	.	.	.	.	.
.	.	8.r	.	.	.	.	.	.	.
.	.	[16G	Ho-	.	.	.	.	.	.
.	.	16G]	_	2Gm	.	voice	.	48.154	G:min
.	.	8.B-	-ney	.	.	.	.	.	.
.	.	4r	.	.	.	.	.	.	.
=17	=17	=17	=17	=17	=17	=17	=17	=17	=17
1r	.	4r	.	2CMm	.	voice	.	49.669	C:7
.	.	16d-	all	.	.	.	.	.	.
.	.	8.d-	I	.	.	.	.	.	.
.	.	16c	e-	2FMm	.	voice	.	51.184	F:7
.	.	8B-	-ver	.	.	.	.	.	.
.	.	[16d-	need	.	.	.	.	.	.
.	.	8.d-]	_	.	.	.	.	.	.
.	.	16B-	is	.	.	.	.	.	.
=18	=18	=18	=18	=18	=18	=18	=18	=18	=18
1r	.	4B-	you	1B-M	.	voice	.	52.699	B-:maj
.	.	4r	.	.	.	.	.	.	.
.	.	2r	.	.	.	.	.	.	.
=19	=19	=19	=19	=19	=19	=19	=19	=19	=19
*>Letter>C	*>Letter>C	*>Letter>C	*>Letter>C	*>Letter>C	*>Letter>C	*>Letter>C	*>Letter>C	*>Letter>C	*>Letter>C
*>Label>Bridge	*>Label>Bridge	*>Label>Bridge	*>Label>Bridge	*>Label>Bridge	*>Label>Bridge	*>Label>Bridge	*>Label>Bridge	*>Label>Bridge	*>Label>Bridge
4r	.	1r	.	1E-M	newline	voice	.	55.73	E-:maj
16B-	Win-	.	.	.	.	.	.	.	.
8B-	-ters	.	.	.	.	.	.	.	.
[16B-	come	.	.	.	.	.	.	.	.
8.B-]	_	.	.	.	.	.	.	.	.
8G	and	.	.	.	.	.	.	.	.
8B-	they	.	.	.	.	.	.	.	.
[16c	go	.	.	.	.	.	A	.	.
=20	=20	=20	=20	=20	=20	=20	=20	=20	=20
4c]	_	1r	.	1FM	.	voice	.	58.752	F:maj
4r	.	.	.	.	.	.	.	.	.
2r	.	.	.	.	.	.	.	.	.
=21	=21	=21	=21	=21	=21	=21	=21	=21	=21
4r	.	1r	.	1E-M	.	voice	.	61.774	E-:maj
16B-	And	.	.	.	.	.	.	.	.
16B-	uh	.	.	.	.	.	.	.	.
16B-	we	.	.	.	.	.	.	.	.
[16B-	watch	.	.	.	.	.	.	.	.
8B-]	_	.	.	.	.	.	.	.	.
16B-	the	.	.	.	.	.	.	.	.
[16g	mel-	.	.	.	.	.	.	.	.
8.g]	_	.	.	.	.	.	.	.	.
[16d	-ting	.	.	.	.	.	.	.	.
=22	=22	=22	=22	=22	=22	=22	=22	=22	=22
16d]	_	1r	.	1Dmm	.	voice	.	64.796	D:min7
16g	snow	.	.	.	.	.	A	.	.
[8f	_	.	.	.	.	.	.	.	.
4f_	_	.	.	.	.	.	.	.	.
4f]	_	.	.	.	.	.	.	.	.
4r	.	.	.	.	.	.	.	.	.
=23	=23	=23	=23	=23	=23	=23	=23	=23	=23
4r	.	1r	.	1E-M	newline	voice	.	67.818	E-:maj
16g	Sure	.	.	.	.	.	.	.	.
8.g	as	.	.	.	.	.	.	.	.
16g	sum-	.	.	.	.	.	.	.	.
8g	-mer	.	.	.	.	.	.	.	.
[16a	fol-	.	.	.	.	.	.	.	.
16a]	_	.	.	.	.	.	.	.	.
8.g	-lows	.	.	.	.	.	A	.	.
=24	=24	=24	=24	=24	=24	=24	=24	=24	=24
8.f	spring	1r	.	4B-M	.	voice	C	71.691	B-:maj
[16d	All	.	.	.	.	.	.	.	.
8d]	_	.	.	4FM	.	voice	.	72.66	F:maj/3
16f	the	.	.	.	.	.	.	.	.
[16d	things	.	.	.	.	.	C	.	.
16d]	_	.	.	4Gm	.	voice	.	73.628	G:min
8c	you	.	.	.	.	.	.	.	.
[16B-	do	.	.	.	.	.	.	.	.
4B-]	_	.	.	4FM	.	voice	.	74.596	F:maj
=25	=25	=25	=25	=25	=25	=25	=25	=25	=25
8r	.	1r	.	4E-M	.	voice	.	75.565	E-:maj
8B-	Give	.	.	.	.	.	.	.	.
16B-	me	.	.	4E-M	.	voice	.	76.533	E-:maj/7
8B-	a	.	.	.	.	.	.	.	.
[16b-	re-	.	.	.	.	.	.	.	.
16b-]	_	.	.	2Cm	.	voice	.	77.502	C:sus4(b7)
8b-	-ason	.	.	.	.	.	.	.	.
16b-	to	.	.	.	.	.	.	.	.
8b-	built	.	.	.	.	.	.	.	.
8b-	my	.	.	.	.	.	.	.	.
=26	=26	=26	=26	=26	=26	=26	=26	=26	=26
8.b-	world	1r	.	1FM	.	voice	.	79.438	F:maj
[16f	a-	.	.	.	.	.	.	.	.
4f]	_	.	.	.	.	.	.	.	.
4B-	-round	.	.	.	.	.	.	.	.
16d	you	.	.	.	.	.	.	.	.
16B-	_	.	.	.	.	.	.	.	.
8c	_	.	.	.	.	.	.	.	.
=27	=27	=27	=27	=27	=27	=27	=27	=27	=27
*>Letter>B	*>Letter>B	*>Letter>B	*>Letter>B	*>Letter>B	*>Letter>B	*>Letter>B	*>Letter>B	*>Letter>B	*>Letter>B
*>Label>Verse	*>Label>Verse	*>Label>Verse	*>Label>Verse	*>Label>Verse	*>Label>Verse	*>Label>Verse	*>Label>Verse	*>Label>Verse	*>Label>Verse
8d	Some-	8B-	Some-	1B-M	newline	voice	.	83.312	B-:maj
8d	-men	8B-	-men	.	.	.	.	.	.
16d	fo-	16B-	fo-	.	.	.	.	.	.
8d	-llow	8B-	-llow	.	.	.	.	.	.
[16f	rain-	[16d	rain-	.	.	.	.	.	.
8f]	_	8d]	_	.	.	.	.	.	.
8f	-bows	8d	-bows	.	.	.	.	.	.
16f	I	16d	I	.	.	.	.	.	.
8d	am	8B-	am	.	.	.	.	.	.
[16d	told	[16A	told	.	.	.	A	.	.
=28	=28	=28	=28	=28	=28	=28	=28	=28	=28
4d]	_	4A]	_	1DMm	.	voice	.	86.355	D:7
4r	.	4r	.	.	.	.	.	.	.
2r	.	2r	.	.	.	.	.	.	.
=29	=29	=29	=29	=29	=29	=29	=29	=29	=29
8B-	Some	8G	Some	1Gm	.	voice	.	89.397	G:min
8B-	men	8G	men	.	.	.	.	.	.
8B-	search	8G	search	.	.	.	.	.	.
8c	for	8A	for	.	.	.	.	.	.
8d	sil-	8B-	sil-	.	.	.	.	.	.
16d	-ver,	16B-	-ver,	.	.	.	.	.	.
[16d	some	[16B-	some	.	.	.	.	.	.
8d]	_	8B-]	_	.	.	.	.	.	.
16B-	for	16G	for	.	.	.	.	.	.
[16A-	gold	[16F	gold	.	.	.	A	.	.
=30	=30	=30	=30	=30	=30	=30	=30	=30	=30
4A-]	_	4F]	_	1B-Mm	.	voice	.	92.44	B-:7
4r	.	4r	.	.	.	.	.	.	.
2r	.	2r	.	.	.	.	.	.	.
=31	=31	=31	=31	=31	=31	=31	=31	=31	=31
1r	.	8G	I	1E-M	newline	voice	.	95.483	E-:maj
.	.	8G	have	.	.	.	.	.	.
.	.	8G	found	.	.	.	.	.	.
.	.	8A	my	.	.	.	.	.	.
.	.	16B-	trea-	.	.	.	.	.	.
.	.	8B-	-sure	.	.	.	.	.	.
.	.	[16B-	In	.	.	.	.	.	.
.	.	8B-]	_	.	.	.	.	.	.
.	.	8G	your	.	.	.	.	.	.
=32	=32	=32	=32	=32	=32	=32	=32	=32	=32
1r	.	8F	soul,	2B-M	.	voice	A	98.496	B-:maj
.	.	8r	.	.	.	.	.	.	.
.	.	4r	.	.	.	.	.	.	.
.	.	16G	ho-	2Gm	.	voice	.	100.002	G:min
.	.	8.B-	-ney	.	.	.	.	.	.
.	.	4r	.	.	.	.	.	.	.
=33	=33	=33	=33	=33	=33	=33	=33	=33	=33
1r	.	4r	.	1CMm	.	voice	.	101.508	C:7
.	.	16d	all	.	.	.	.	.	.
.	.	8.d	I	.	.	.	.	.	.
.	.	16c	e-	.	.	.	.	.	.
.	.	8B-	-ver	.	.	.	.	.	.
.	.	16d-	need	.	.	.	.	.	.
.	.	8c	_	.	.	.	.	.	.
.	.	8B-	_	.	.	.	.	.	.
=34	=34	=34	=34	=34	=34	=34	=34	=34	=34
1r	.	4c	you	2FMm	.	voice	.	104.521	F:7
.	.	4r	.	.	.	.	.	.	.
.	.	2r	.	4FM	.	voice	.	106.028	F:sus4(b7)
.	.	.	.	4FMm	.	voice	.	106.781	F:7
=35	=35	=35	=35	=35	=35	=35	=35	=35	=35
16d	With-	16B-	With-	1B-M	newline	voice	.	107.534	B-:maj
8d	-out	8B-	-out	.	.	.	.	.	.
[16d	love	[16B-	love	.	.	.	.	.	.
16d]	_	16B-]	_	.	.	.	.	.	.
8.d	I'd	8.B-	I'd	.	.	.	.	.	.
16f	ne-	16B-	ne-	.	.	.	.	.	.
8f	-ver	8B-	-ver	.	.	.	.	.	.
[16f	find	[16B-	find	.	.	.	.	.	.
8f]	_	8B-]	_	.	.	.	.	.	.
16e-	the	16B-	the	.	.	.	.	.	.
[16d	way	[16A	way	.	.	.	D	.	.
=36	=36	=36	=36	=36	=36	=36	=36	=36	=36
4d]	_	4A]	_	1DMm	.	voice	.	110.565	D:7
4r	.	4r	.	.	.	.	.	.	.
4r	.	4r	.	.	.	.	.	.	.
8r	.	8r	.	.	.	.	.	.	.
8B-	Through	8G	Through	.	.	.	.	.	.
=37	=37	=37	=37	=37	=37	=37	=37	=37	=37
8B-	ups	8G	ups	1Gm	.	voice	.	113.596	G:min
8B-	and	8G	and	.	.	.	.	.	.
8B-	downs	8G	downs	.	.	.	.	.	.
16c	of	16G	of	.	.	.	.	.	.
[16d	e-	[16G	e-	.	.	.	.	.	.
16d]	_	16G]	_	.	.	.	.	.	.
8d	-v'ry	8G	-v'ry	.	.	.	.	.	.
[16d	sing-	[16G	sing-	.	.	.	.	.	.
16d]	_	16G]	_	.	.	.	.	.	.
8B-	-le	8G	-le	.	.	.	.	.	.
[16A-	day	[16F	day	.	.	.	D	.	.
=38	=38	=38	=38	=38	=38	=38	=38	=38	=38
8A-]	_	8F]	_	1B-Mm	.	voice	.	116.627	B-:7
8r	.	8r	.	.	.	.	.	.	.
4r	.	4r	.	.	.	.	.	.	.
2r	.	2r	.	.	.	.	.	.	.
=39	=39	=39	=39	=39	=39	=39	=39	=39	=39
8G	I	1r	.	1E-M	newline	voice	.	119.657	E-:maj
8G	won't	.	.	.	.	.	.	.	.
16G	sleep	.	.	.	.	.	.	.	.
8A	at	.	.	.	.	.	.	.	.
[16B-	night	.	.	.	.	.	.	.	.
8B-]	_	.	.	.	.	.	.	.	.
16A	un-	.	.	.	.	.	.	.	.
[16B-	-til	.	.	.	.	.	.	.	.
16B-]	_	.	.	.	.	.	.	.	.
8G	you	.	.	.	.	.	.	.	.
[16F	say,	.	.	.	.	.	D	.	.
=40	=40	=40	=40	=40	=40	=40	=40	=40	=40
4F]	_	1r	.	2B-M	.	voice	.	122.704	B-:maj
16r	.	.	.	.	.	.	.	.	.
8.F#	my	.	.	.	.	.	.	.	.
16G	ho-	.	.	2Gm	.	voice	.	124.227	G:min
[8.B-	-ney	.	.	.	.	.	.	.	.
4B-]	_	.	.	.	.	.	.	.	.
=41	=41	=41	=41	=41	=41	=41	=41	=41	=41
4r	.	1r	.	2CMm	.	voice	.	125.75	C:7
16B-	All	.	.	.	.	.	.	.	.
8.B-	I	.	.	.	.	.	.	.	.
16B-	e-	.	.	2FMm	.	voice	.	127.273	F:7
8B-	-ver	.	.	.	.	.	.	.	.
[16d	need	.	.	.	.	.	.	.	.
8d]	_	.	.	.	.	.	.	.	.
16B-	is	.	.	.	.	.	.	.	.
[16B-	you	.	.	.	.	.	.	.	.
=42	=42	=42	=42	=42	=42	=42	=42	=42	=42
*>Letter>A	*>Letter>A	*>Letter>A	*>Letter>A	*>Letter>A	*>Letter>A	*>Letter>A	*>Letter>A	*>Letter>A	*>Letter>A
*>Label>Trans	*>Label>Trans	*>Label>Trans	*>Label>Trans	*>Label>Trans	*>Label>Trans	*>Label>Trans	*>Label>Trans	*>Label>Trans	*>Label>Trans
4B-]	_	1r	.	1B-M	->newline	guitar	.	128.796	B-:maj
4r	.	.	.	.	.	.	.	.	.
2r	.	.	.	.	.	.	.	.	.
=43	=43	=43	=43	=43	=43	=43	=43	=43	=43
1r	.	1r	.	1B-M	.	guitar	.	131.964	B-:maj
=44	=44	=44	=44	=44	=44	=44	=44	=44	=44
*>Letter>B	*>Letter>B	*>Letter>B	*>Letter>B	*>Letter>B	*>Letter>B	*>Letter>B	*>Letter>B	*>Letter>B	*>Letter>B
*>Label>Fadeout	*>Label>Fadeout	*>Label>Fadeout	*>Label>Fadeout	*>Label>Fadeout	*>Label>Fadeout	*>Label>Fadeout	*>Label>Fadeout	*>Label>Fadeout	*>Label>Fadeout
1r	.	8r	.	1B-M	newline	voice	.	135.131	B-:maj
.	.	8d	Tah	.	.	.	.	.	.
.	.	16d	tah-	.	.	.	.	.	.
.	.	8d	-tah	.	.	.	.	.	.
.	.	[16f	tah-	.	.	.	.	.	.
.	.	8f]	_	.	.	.	.	.	.
.	.	8f	-tah	.	.	.	.	.	.
.	.	16f	tah	.	.	.	.	.	.
.	.	8d	tah	.	.	.	.	.	.
.	.	[16d	tah	.	.	.	.	.	.
=45	=45	=45	=45	=45	=45	=45	=45	=45	=45
4r	.	4d]	_	1DMm	.	voice	.	138.175	D:7
8r	.	4r	.	.	.	.	.	.	.
8d	Oh	.	.	.	.	.	.	.	.
16c	ho-	2r	.	.	.	.	.	.	.
8B-	-ney	.	.	.	.	.	.	.	.
16d	ho-	.	.	.	.	.	.	.	.
4c	-ney	.	.	.	.	.	.	.	.
=46	=46	=46	=46	=46	=46	=46	=46	=46	=46
1r	.	8r	.	1Gm	.	voice	.	141.218	G:min
.	.	8B-	tah	.	.	.	.	.	.
.	.	16B-	tah	.	.	.	.	.	.
.	.	8c	tah	.	.	.	.	.	.
.	.	[16d	tah	.	.	.	.	.	.
.	.	8d]	_	.	.	.	.	.	.
.	.	8d	tah	.	.	.	.	.	.
.	.	16d	tah	.	.	.	.	.	.
.	.	8B-	tah	.	.	.	.	.	.
.	.	[16A-	tah	.	.	.	.	.	.
=47	=47	=47	=47	=47	=47	=47	=47	=47	=47
4r	.	4A-]	_	1B-Mm	.	voice	.	144.262	B-:7
4B-	My	4r	.	.	.	.	.	.	.
16d	ho-	2r	.	.	.	.	.	.	.
16c	-ney	.	.	.	.	.	.	.	.
8B-	_	.	.	.	.	.	.	.	.
16d	ho-	.	.	.	.	.	.	.	.
16c	-ney	.	.	.	.	.	.	.	.
8B-	_	.	.	.	.	.	.	.	.
=48	=48	=48	=48	=48	=48	=48	=48	=48	=48
4r	.	1r	.	1E-M	newline	voice	.	147.306	E-:maj
16G	sleep	.	.	.	.	.	.	.	.
8A	at	.	.	.	.	.	.	.	.
[16B-	night	.	.	.	.	.	.	.	.
8B-]	_	.	.	.	.	.	.	.	.
16A	un-	.	.	.	.	.	.	.	.
[16B-	-til	.	.	.	.	.	.	.	.
16B-]	_	.	.	.	.	.	.	.	.
8G	you	.	.	.	.	.	.	.	.
[16F	say,	.	.	.	.	.	.	.	.
=49	=49	=49	=49	=49	=49	=49	=49	=49	=49
4F]	_	1r	.	2B-M	.	voice	.	149.86	B-:maj
16r	.	.	.	.	.	.	.	.	.
8.F#	my	.	.	.	.	.	.	.	.
16G	ho-	.	.	2Gm	.	voice	.	151.138	G:min
[8.B-	-ney	.	.	.	.	.	.	.	.
4B-]	_	.	.	.	.	.	.	.	.
=50	=50	=50	=50	=50	=50	=50	=50	=50	=50
4r	.	1r	.	1CMm	.	voice	.	152.415	C:7
16d	all	.	.	.	.	.	.	.	.
8.d	I	.	.	.	.	.	.	.	.
16c	e-	.	.	.	.	.	.	.	.
8B-	-ver	.	.	.	.	.	.	.	.
16d	need	.	.	.	.	.	.	.	.
8c	_	.	.	.	.	.	.	.	.
8B-	_	.	.	.	.	.	.	.	.
=51	=51	=51	=51	=51	=51	=51	=51	=51	=51
4c	you	1r	.	2FMm	.	voice	.	154.97	F:7
4r	.	.	.	.	.	.	.	.	.
2r	.	.	.	4FM	.	voice	.	156.247	F:sus4(b7)
.	.	.	.	4FMm	.	voice	.	156.886	F:7
r;	.	r;	.	1r;	.	r	.	157.524	N.C.
r;	.	r;	.	1r;	.	r	.	159.634	N.C.
*-	*-	*-	*-	*-	*-	*-	*-	*-	*-
!!!BillboardChartDate: 1971/12/11
!!!BillboardPeak: 7
!!!BillboardWeeksOnChart: 15
!!!COC: Sonny & Cher
!!!ENC: Nathaniel Condit-Schultz
!!!EST: Awating manual error checking and editing.
!!!OTL: All I Ever Need Is You
!!!RDF**chordsym: original McGill chord annotation + (implied pitch class set, with bass pitch in first position)
!!!RDF**harmony: **recip + pitch class of root + harmonic quality
!!!RDF**leadinstrument: original McGill primary instrumentation annotation
!!!RDF**phrase: newline = linebreak in original McGill transcription
!!!RDF**timestamp: McGill audio timestamp in seconds
!!!RDT: 2017/01/12/
!!!SampleActualRank: 8
!!!SampleID#: 0950
!!!SampleTargetRank: 8
